images/icons/animals.svg

<svg width="52" height="52" viewBox="0 0 52 52" fill="none" xmlns="http://www.w3.org/2000/svg">
<g clip-path="url(#clip0)">
<path d="M22.3735 44.7383C21.2658 43.9381 20.6188 43.1276 20.3926 42.2592C19.5539 39.0171 16.8459 36.6506 13.8073 36.6506C10.7692 36.6506 7.95955 39.0171 7.12086 42.2608C6.89473 43.126 6.24766 43.9381 5.1396 44.7395C3.79072 45.7167 3.17381 47.2278 3.52928 48.685C3.95655 50.4381 5.9033 51.9973 8.56614 51.9973C9.69206 51.9973 10.7612 51.7085 11.6567 51.163C12.2514 50.7984 13.0607 50.6052 13.8045 50.6052C14.548 50.6052 15.2542 50.7972 15.8568 51.1614C16.755 51.7101 17.8183 52.0001 18.9339 52.0001C21.5951 52.0001 23.5538 50.4489 23.9842 48.6854C24.3397 47.2278 23.7212 45.7151 22.3735 44.7383Z" fill="black"/>
<path d="M6.09137 36.6505C6.09137 34.8882 4.69806 32.0818 3.04568 32.0818C1.39371 32.0818 0 34.8882 0 36.6505C0 38.3295 1.36673 39.6962 3.04568 39.6962C4.72464 39.6962 6.09137 38.3295 6.09137 36.6505Z" fill="black"/>
<path d="M24.4674 32.0818C22.8155 32.0818 21.4218 34.8882 21.4218 36.6505C21.4218 38.3295 22.7885 39.6962 24.4674 39.6962C26.1464 39.6962 27.5131 38.3295 27.5131 36.6505C27.5131 34.8882 26.1198 32.0818 24.4674 32.0818Z" fill="black"/>
<path d="M15.3304 30.5588C15.3304 32.2382 16.6971 33.6049 18.3761 33.6049C20.055 33.6049 21.4218 32.2382 21.4218 30.5588C21.4218 28.7965 20.0284 25.9905 18.3761 25.9905C16.7237 25.9905 15.3304 28.7965 15.3304 30.5588Z" fill="black"/>
<path d="M9.13745 33.6049C10.8164 33.6049 12.1831 32.2382 12.1831 30.5588C12.1831 28.7965 10.7894 25.9905 9.13745 25.9905C7.48508 25.9905 6.09137 28.7965 6.09137 30.5588C6.09137 32.2382 7.4581 33.6049 9.13745 33.6049Z" fill="black"/>
<path d="M46.841 18.7479C45.7333 17.9477 45.0862 17.0356 44.8601 16.1671C44.0214 12.9251 41.2118 10.6602 38.1732 10.6602C35.1351 10.6602 32.427 12.9251 31.5883 16.1687C31.3622 17.0344 30.7151 17.9477 29.6071 18.7494C28.2582 19.7266 27.6413 21.2373 27.9967 22.6949C28.424 24.4477 30.3708 26.0068 33.0336 26.0068C34.1595 26.0068 35.2287 25.7184 36.1241 25.1725C36.7188 24.8079 37.4266 24.6147 38.1705 24.6147C38.9139 24.6147 39.7217 24.8067 40.3243 25.1709C41.2225 25.7196 42.2857 26.01 43.4013 26.01C46.0626 26.01 48.0212 24.4584 48.4517 22.6949C48.8071 21.2373 48.1886 19.725 46.841 18.7479Z" fill="black"/>
<path d="M30.5592 10.66C30.5592 8.89777 29.1655 6.09131 27.5132 6.09131C25.8612 6.09131 24.4675 8.89777 24.4675 10.66C24.4675 12.339 25.8342 13.7057 27.5132 13.7057C29.1925 13.7057 30.5592 12.339 30.5592 10.66Z" fill="black"/>
<path d="M48.9348 6.09131C47.2829 6.09131 45.8892 8.89777 45.8892 10.66C45.8892 12.339 47.2559 13.7057 48.9348 13.7057C50.6142 13.7057 51.9809 12.339 51.9809 10.66C51.9809 8.89777 50.5872 6.09131 48.9348 6.09131Z" fill="black"/>
<path d="M39.7979 4.56873C39.7979 6.24768 41.1646 7.61441 42.8435 7.61441C44.5225 7.61441 45.8892 6.24768 45.8892 4.56873C45.8892 2.80646 44.4959 0 42.8435 0C41.1912 0 39.7979 2.80646 39.7979 4.56873Z" fill="black"/>
<path d="M30.5592 4.56873C30.5592 6.24768 31.9259 7.61441 33.6049 7.61441C35.2838 7.61441 36.6506 6.24768 36.6506 4.56873C36.6506 2.80646 35.2569 0 33.6049 0C31.9525 0 30.5592 2.80646 30.5592 4.56873Z" fill="black"/>
</g>
<defs>
<clipPath id="clip0">
<rect width="52" height="52" fill="white"/>
</clipPath>
</defs>
</svg>

<svg width="52" height="52" fill="none" xmlns="http://www.w3.org/2000/svg"><g clip-path="url(#a)" fill="#000"><path d="M22.373 44.738c-1.107-.8-1.754-1.61-1.98-2.479-.84-3.242-3.547-5.608-6.586-5.608-3.038 0-5.847 2.366-6.686 5.61-.226.865-.873 1.677-1.981 2.478-1.35.978-1.966 2.489-1.61 3.946.427 1.753 2.373 3.312 5.036 3.312 1.126 0 2.195-.288 3.09-.834.595-.365 1.405-.558 2.149-.558.743 0 1.45.192 2.052.556.898.55 1.961.84 3.077.84 2.661 0 4.62-1.552 5.05-3.316.356-1.457-.263-2.97-1.61-3.947zM6.091 36.65c0-1.762-1.393-4.568-3.045-4.568S0 34.888 0 36.65a3.05 3.05 0 0 0 3.046 3.045 3.05 3.05 0 0 0 3.045-3.045zM24.467 32.082c-1.651 0-3.045 2.806-3.045 4.569a3.05 3.05 0 0 0 3.045 3.045 3.05 3.05 0 0 0 3.046-3.045c0-1.763-1.393-4.57-3.046-4.57zM15.33 30.559a3.05 3.05 0 0 0 3.046 3.046 3.05 3.05 0 0 0 3.046-3.046c0-1.762-1.394-4.569-3.046-4.569s-3.046 2.807-3.046 4.569zM9.137 33.605a3.05 3.05 0 0 0 3.046-3.046c0-1.762-1.394-4.569-3.046-4.569s-3.046 2.807-3.046 4.569a3.05 3.05 0 0 0 3.046 3.046zM46.841 18.748c-1.108-.8-1.755-1.712-1.98-2.58-.84-3.243-3.65-5.508-6.688-5.508s-5.746 2.265-6.585 5.509c-.226.865-.873 1.779-1.98 2.58-1.35.978-1.967 2.488-1.611 3.946.427 1.753 2.374 3.312 5.037 3.312 1.126 0 2.195-.289 3.09-.835a3.908 3.908 0 0 1 2.046-.557c.744 0 1.552.192 2.154.556a5.89 5.89 0 0 0 3.077.839c2.662 0 4.62-1.552 5.05-3.315.356-1.458-.262-2.97-1.61-3.947zM30.56 10.66c0-1.762-1.394-4.569-3.047-4.569-1.652 0-3.046 2.807-3.046 4.569a3.05 3.05 0 0 0 3.046 3.046 3.05 3.05 0 0 0 3.046-3.046zM48.935 6.091c-1.652 0-3.046 2.807-3.046 4.569a3.05 3.05 0 0 0 3.046 3.046 3.05 3.05 0 0 0 3.046-3.046c0-1.762-1.394-4.569-3.046-4.569zM39.798 4.569a3.05 3.05 0 0 0 3.045 3.045A3.05 3.05 0 0 0 45.89 4.57C45.89 2.806 44.496 0 42.843 0c-1.652 0-3.045 2.806-3.045 4.569zM30.56 4.569a3.05 3.05 0 0 0 3.045 3.045A3.05 3.05 0 0 0 36.65 4.57C36.65 2.806 35.257 0 33.605 0s-3.046 2.806-3.046 4.569z"/></g><defs><clipPath id="a"><path fill="#fff" d="M0 0h52v52H0z"/></clipPath></defs></svg>
